icons/apps-a.svg

<svg width="24" height="24" viewBox="0 0 24 24" fill="none" xmlns="http://www.w3.org/2000/svg">
<path fill-rule="evenodd" clip-rule="evenodd" d="M5.25 6.5C5.25 5.81421 5.81421 5.25 6.5 5.25H8.5C9.18579 5.25 9.75 5.81421 9.75 6.5V9.75H6.5C5.81421 9.75 5.25 9.18579 5.25 8.5V6.5ZM6.5 3.75C4.98579 3.75 3.75 4.98579 3.75 6.5V8.5C3.75 10.0142 4.98579 11.25 6.5 11.25H11.25V6.5C11.25 4.98579 10.0142 3.75 8.5 3.75H6.5ZM14.25 6.5C14.25 5.81421 14.8142 5.25 15.5 5.25H17.5C18.1858 5.25 18.75 5.81421 18.75 6.5V8.5C18.75 9.18579 18.1858 9.75 17.5 9.75H14.25V6.5ZM15.5 3.75C13.9858 3.75 12.75 4.98579 12.75 6.5V11.25H17.5C19.0142 11.25 20.25 10.0142 20.25 8.5V6.5C20.25 4.98579 19.0142 3.75 17.5 3.75H15.5ZM6.5 14.25C5.81421 14.25 5.25 14.8142 5.25 15.5V17.5C5.25 18.1858 5.81421 18.75 6.5 18.75H8.5C9.18579 18.75 9.75 18.1858 9.75 17.5V14.25H6.5ZM3.75 15.5C3.75 13.9858 4.98579 12.75 6.5 12.75H11.25V17.5C11.25 19.0142 10.0142 20.25 8.5 20.25H6.5C4.98579 20.25 3.75 19.0142 3.75 17.5V15.5ZM17.5 12.75H12.75V17.5C12.75 19.0142 13.9858 20.25 15.5 20.25H17.5C19.0142 20.25 20.25 19.0142 20.25 17.5V15.5C20.25 13.9858 19.0142 12.75 17.5 12.75ZM14.25 17.5V14.25H17.5C18.1858 14.25 18.75 14.8142 18.75 15.5V17.5C18.75 18.1858 18.1858 18.75 17.5 18.75H15.5C14.8142 18.75 14.25 18.1858 14.25 17.5Z" fill="black"/>
</svg>

<svg xmlns="http://www.w3.org/2000/svg" fill="none" viewBox="0 0 24 24">
  <path fill="#000" fill-rule="evenodd" d="M5.25 6.5c0-.686.564-1.25 1.25-1.25h2c.686 0 1.25.564 1.25 1.25v3.25H6.5c-.686 0-1.25-.564-1.25-1.25v-2ZM6.5 3.75A2.756 2.756 0 0 0 3.75 6.5v2a2.756 2.756 0 0 0 2.75 2.75h4.75V6.5A2.756 2.756 0 0 0 8.5 3.75h-2Zm7.75 2.75c0-.686.564-1.25 1.25-1.25h2c.686 0 1.25.564 1.25 1.25v2c0 .686-.564 1.25-1.25 1.25h-3.25V6.5Zm1.25-2.75a2.756 2.756 0 0 0-2.75 2.75v4.75h4.75a2.756 2.756 0 0 0 2.75-2.75v-2a2.756 2.756 0 0 0-2.75-2.75h-2Zm-9 10.5c-.686 0-1.25.564-1.25 1.25v2c0 .686.564 1.25 1.25 1.25h2c.686 0 1.25-.564 1.25-1.25v-3.25H6.5ZM3.75 15.5a2.756 2.756 0 0 1 2.75-2.75h4.75v4.75a2.756 2.756 0 0 1-2.75 2.75h-2a2.756 2.756 0 0 1-2.75-2.75v-2Zm13.75-2.75h-4.75v4.75a2.756 2.756 0 0 0 2.75 2.75h2a2.756 2.756 0 0 0 2.75-2.75v-2a2.756 2.756 0 0 0-2.75-2.75Zm-3.25 4.75v-3.25h3.25c.686 0 1.25.564 1.25 1.25v2c0 .686-.564 1.25-1.25 1.25h-2c-.686 0-1.25-.564-1.25-1.25Z" clip-rule="evenodd"/>
</svg>
